X: 935
T: Charlie Stewart.
B:O'Neill's 935
N:"collected by J. O'Neill."
Z:Transcribed by Tom Keays (htkeays@mailbox.syr.edu)
Z:abc 1.6
M:6/8
R:Jig
L:1/8
K:A
d | cee Ace | dfa ecA | def ecA | GBB B2 d |
cee efg | agf ecA | (f/g/a)>f ecA | BAA A2 :|
|| d | cAA eAA | (f/g/a)>f ecA | cAA eAA | GBB B2 d |
cAA eAA | (f/g/a)>f ecA | agf eac | BAA A2 :|


